extra/scalable/places/folder-documents.svg

<svg width="256" height="256" fill="none" version="1.1" viewBox="0 0 256 256" xmlns="http://www.w3.org/2000/svg">
 <path d="m8 56c0-8.8366 7.1634-16 16-16h71.797c3.3814 0 6.6759 1.0713 9.4109 3.0602l13.584 9.8796c2.735 1.9889 6.029 3.0602 9.411 3.0602h103.8c8.837 0 16 7.1634 16 16v128c0 8.837-7.163 16-16 16h-208c-8.8366 0-16-7.163-16-16z" fill="url(#paint0_linear_2053_149)"/>
 <path d="m8 88c0-8.8366 7.1634-16 16-16h208c8.837 0 16 7.1634 16 16v112c0 8.837-7.163 16-16 16h-208c-8.8366 0-16-7.163-16-16z" fill="url(#paint1_linear_2053_175)"/>
 <path d="m102 96c-3.4472 0-6.7533 1.3486-9.191 3.749-2.4376 2.4-3.807 5.656-3.807 9.051v70.4c0 3.395 1.3694 6.651 3.807 9.051 2.4377 2.4 5.7438 3.749 9.191 3.749h51.992c7.084 0 12.829-5.594 12.972-12.538 0.065-7.001 0.033-34.707 0-52.032-0.059-3.189-1.327-6.241-3.554-8.556l-19.296-19.002c-1.211-1.2252-2.659-2.1991-4.259-2.8641-1.599-0.6651-3.318-1.0078-5.054-1.0079z" fill="#fff"/>
 <defs>
  <linearGradient id="paint1_linear_2053_175" x1="248" x2="40.837" y1="72" y2="253.48" gradientUnits="userSpaceOnUse">
   <stop stop-color="#979FAD" offset="0"/>
   <stop stop-color="#808080" offset="1"/>
  </linearGradient>
  <linearGradient id="paint0_linear_2053_149" x1="121" x2="121" y1="72.5" y2="40" gradientUnits="userSpaceOnUse">
   <stop stop-color="#484848" offset="0"/>
   <stop stop-color="#636363" offset="1"/>
  </linearGradient>
 </defs>
</svg>

<svg width="256" height="256" viewBox="0 0 256 256" fill="none" xmlns="http://www.w3.org/2000/svg">
<path d="M8 56C8 47.1634 15.1634 40 24 40H95.7971C99.1785 40 102.473 41.0713 105.208 43.0602L123 56H232C240.837 56 248 63.1634 248 72V200C248 208.837 240.837 216 232 216H24C15.1634 216 8 208.837 8 200V56Z" fill="url(#paint0_linear_2053_175)"/>
<rect x="8" y="72" width="240" height="144" rx="16" fill="url(#paint1_linear_2053_175)"/>
<path d="M101.998 96C98.5508 96 95.2447 97.3486 92.807 99.749C90.3694 102.149 89 105.405 89 108.8V179.2C89 182.595 90.3694 185.851 92.807 188.251C95.2447 190.651 98.5508 192 101.998 192H153.99C161.074 192 166.819 186.406 166.962 179.462C167.027 172.461 166.995 144.755 166.962 127.43C166.903 124.241 165.635 121.189 163.408 118.874L144.112 99.872C142.901 98.6468 141.453 97.6729 139.853 97.0079C138.254 96.3428 136.535 96.0001 134.799 96H101.998Z" fill="white"/>
<defs>
<linearGradient id="paint0_linear_2053_175" x1="128" y1="40" x2="128" y2="216" gradientUnits="userSpaceOnUse">
<stop stop-color="#636363"/>
<stop offset="0.2" stop-color="#484848"/>
<stop offset="1" stop-color="#484848"/>
</linearGradient>
<linearGradient id="paint1_linear_2053_175" x1="248" y1="72" x2="40.837" y2="253.483" gradientUnits="userSpaceOnUse">
<stop stop-color="#979FAD"/>
<stop offset="1" stop-color="#808080"/>
</linearGradient>
</defs>
</svg>
